X:1
T:Si le secours
T:Si le secours
T:Nicolas Gombert
C:Nicolas Gombert
%%score [ 1 2 3 4 ]
L:1/8
Q:1/4=84
M:2/2
K:F
V:1 treble nm="Superius" snm="S"
V:2 treble nm="Altus" snm="A"
V:3 treble-8 nm="Tenor" snm="T"
V:4 bass nm="Bass" snm="B"
V:1
 z4 d4 | d2 d2 c4- | c2 BA G2 c2 | B2 G2 B2 B2 | A6 GF | G2 z F G2 A2- | AG G4 F2 | G8 | %8
w: Si|le se- cours|_ _ _ _ que|de long- temps j'at-||tends, que de long|_ _ temps j'at-|tends,|
 z2 G2 B3 c | d4 z4 | z4 z2 e2 | f3 e d2 c2 | B2 A4 G2 | A2 F4 G2 | A2 B2 G4 | F2 A2 F2 D2 | %16
w: ne vient de|brief|et|que _ _ n'ay|ce- que pre-|tens, et que|n'ay que pre-|tens, ma vie- ne|
 A4 F4 | G2 B2 A2 A2 | G4 A4- | A4 z2 A2 | F2 D2 A4 | z4 A4 | B3 c d2 e2- | ed d4 c2 | d4 z4 | z8 | %26
w: peult a-|voir lon- gue du-|ré- e,|_ ma|vie ne peult|a-|voir lon- gue du-|* * ré- *|e,||
 z2 A2 B2 G2 | d3 c/B/ A4 | B4 z4 | z4 c4 | c3 B A2 G2 | FD G4 F2 | G4 z4 | z4 z2 A2 | %34
w: car d'ain- si|vi- * * *|vre,|je|suis _ _ trop|en- * * nui-|eulx,|car|
 B2 G2 d2 cB | A4 B4 | z8 | c4 c3 B | A2 G2 FD G2- | G2 F2 G4 | z2 d2 d3 c | B2 A2 G2 A2- | %42
w: d'ain- si vi- * *|* vre,||je suis _|_ trop en- * *|* nui- eulx,|je- suis _|_ trop en- *|
 AG G4 F2 | G8 |] %44
w: * * * nui-|eulx.|
V:2
 G4 G2 G2 | F6 ED | C2 F2 E2 C2 |"^b""^b" E2 E2 D4 | F4 F2 F2 |"^b""^b""^b" E2 C2 E3 E | %6
w: Si le se-|cours _ _|_ que de long|temps j'at- tends,|si le se-|cours que de long|
"^b" E2 C2 D3 C | B,2 C2 G,2 C2 | E3 F G2 G2 | B3 A G2 F2 | E2 D4 C2 | D4 z4 | z2 E2 F2 E2 | %13
w: temps j'at- * *|* * tends, ne|vient de brief et|que _ _ n'ay|ce que pre-|tens,|et que n'ay|
 D2 C2 F2 E2- | ED D4 C2 | D8 | z4 D4 | B,2 G,2 D2 D2 | E6 C2 | F2 F2 E4 | D2 F3 D E2 | F2 G4 F2 | %22
w: ce que pre- *||tens,|ma|vie ne peult a-|voir lon-|gue du- ré-||* e, ma|
 G2 G2 G2 G2 | B2 G2 A4 | F4 G2 E2 | D4 z2 D2 | E2 C2 G4 | D2 G2 G2 F2 | G3 F E2 D2 | C2 F4 E2 | %30
w: vi- e ne peult|a- voir lon-|gue- du- ré-|e, car|d'ain- si vi-|vre, je suis trop|en- * * *|* * nui-|
 F4 C4 | D2 E2 D3 C |"^b" B,2 E2 D4 | z2 D2 E2 C2 | G4 D2 G2 | G2 F2 G3 F | E2 D2 C2 F2- | %37
w: eulx, je|suis trop en- *|* nui- eulx,|car d'ain- si|vi- vre je|suis trop en- *||
 F2 E2 F4 | C4 D2 E2 | D2 D2 D3 C | B,3 A, G,2 F,2 |"^b" G,2 D4 E2- | E2 C2 D4 | D8 |] %44
w: * nui- eulx,|car d'ain- si|vi- vre je _|suis _ _ trop|en- * *|* * nui-|eulx.|
V:3
 z8 | z8 | z8 | z4 d4 | d2 d2 c4- | c2 BA G2 c2 | B2 G2 A2 A2 | G4 z2 G2 | B3 c d4 | z2 d2 d2 c2 | %10
w: |||Si|le se- cours|_ _ _ _ que|de long temps j'at-|tends, ne|vient de brief|et que n'ay|
 B2 A4 G2 | A2 d2 f3 e | d2 c2 B4 | A6 c2- | c2 B4 AG | A4 z2 A2 | F2 D2 A2 B2 | G2 g3 f f2 | %18
w: ce que pre-|temps, et que _|_ n'ay ce-|que pre-||tens, ma|vie ne peult a-|voir lon- gue du-|
 gfed c2 e2- | ed d4 c2 | d4 z2 A2 | d2 d2 c2 c2 | d2 e2 d2 c2 | gfed e4 | d4 z2 A2 | B2 G2 d4 | %26
w: ré- * * * * *||e, ma|vi- e ne peult|a- voir lon- fue|du- * * * ré-|e, car|d'ain- si vi-|
 A4 z4 | z4 d4 | d3 c B2 A2 | G2 F2 G4 | A4 F2 G2 | B2 c2 A4 | G3 A B2 G2 | d4 A4 | z8 | d4 d3 c | %36
w: vre,|je|suis _ _ trop|en- nui- eulx,|je suis trop|en- * *||nui- eulx,||je suis _|
 B2 A2 G2 F2 | G4 A4 | F2 G2 B2 c2 | A4 G4- | G4 d4 | d3 c B2 c2- | cB G2 A4 | G8 |] %44
w: _ trop en- *|||nui- eulx,|_ je|suis _ _ trop|_ _ en- nui-|eulx.|
V:4
 z8 | z8 | z8 | G,4 G,2 G,2 | F,6 E,D, |"^b""^b" C,2 F,2 E,2 C,2 |"^b""^b" E,2 E,2 D,4 | %7
w: |||Si le se-|cours _ _|_ que de long|temps j'at- tends,|
 z2 C,2 E,3 F, | G,8 | z2 G,2 B,2 A,2 | G,2 F,2 E,4 | D,4 z4 | z4 z2 E,2 | F,3 E, D,2 C,2 | %14
w: ne vient de|brief|et que n'ay|ce que- pre-|tens,|et|que _ _ n'ay|
"^b" F,2 G,2 E,4 | D,8- | D,8 | z8 |"^b" z4 A,4 | F,2 D,2 A,2 A,2 | B,C D4 C2 | B,2 G,2 A,4 | %22
w: ce que pre-|tens,|_||ma|vi- e ne peult|a- * voir lon-|gue du- ré-|
 G,3 A, B,2 C2 | G,2 B,2 A,4 | z2 D,2 E,2 C,2 | G,4 D,4 | z8 | z8 | G,4 G,2 F,2 | E,2 D,2 C,4 | %30
w: |* * e,|car d'ain- si|vi- vre,|||je suis trop|en- nui- eulx,|
 F,4 F,2 E,2 | D,2 C,2 D,3 D, |"^b" E,2 C,2 G,4 | D,4 z4 | z8 | z4 G,4 | G,2 F,2 E,2 D,2 | %37
w: je suis trop|en- * * *|* * nui-|eulx,||je|suis trop en- nui-|
 C,4 F,4 |"^#" F,2 E,2 D,2 C,2 | D,4 z2 D2 | D3 C B,2 A,2 | G,2 F,2 G,2 C,2 |"^b" E,4 D,4 | G,8 |] %44
w: eulx, je-|suis trop en- nui-|eulx, je|suis _ _ trop|en- * * *|* nui-|eulx.|

